icons/check-double-fill.svg

<svg viewBox="0 0 24 24" fill="currentColor" xmlns="http://www.w3.org/2000/svg">
    <path d="M11.602 13.7599L13.014 15.1719L21.4795 6.7063L22.8938 8.12051L13.014 18.0003L6.65 11.6363L8.06421 10.2221L10.189 12.3469L11.6025 13.7594L11.602 13.7599ZM11.6037 10.9322L16.5563 5.97949L17.9666 7.38977L13.014 12.3424L11.6037 10.9322ZM8.77698 16.5873L7.36396 18.0003L1 11.6363L2.41421 10.2221L3.82723 11.6352L3.82604 11.6363L8.77698 16.5873Z"/>
</svg>

<svg xmlns="http://www.w3.org/2000/svg" viewBox="0 0 24 24">
    <g>
        <path fill="none" d="M0 0h24v24H0z"/>
        <path d="M11.602 13.76l1.412 1.412 8.466-8.466 1.414 1.414-9.88 9.88-6.364-6.364 1.414-1.414 2.125 2.125 1.413 1.412zm.002-2.828l4.952-4.953 1.41 1.41-4.952 4.953-1.41-1.41zm-2.827 5.655L7.364 18 1 11.636l1.414-1.414 1.413 1.413-.001.001 4.951 4.951z"/>
    </g>
</svg>
